X: 1
T: Gan Ainm
M: 2/4
L: 1/8
R: polka
K: Emin
|: GF |\
EB GB | EB GB | DE FG | AG FD |
EB GB | EB GB | AG FD | E2 :|
|: GF |\
EF GA | Bc BB | dG GG | A2 ^A2 |
Bc BA | GE EG | AG FD | E2 :|
